Other/basketball.svg

<svg xmlns="http://www.w3.org/2000/svg" viewBox="0 0 24 24" style="enable-background:new 0 0 24 24" xml:space="preserve"><path d="M20.5 20.4c2.2-2.2 3.5-5.2 3.5-8.4 0-3.3-1.3-6.3-3.5-8.4C18.3 1.3 15.3 0 12 0S5.7 1.3 3.6 3.5C1.3 5.7 0 8.7 0 12s1.3 6.3 3.5 8.4C5.7 22.7 8.7 24 12 24s6.3-1.3 8.5-3.6c-.1.1 0 .1 0 0 0 .1 0 0 0 0zM1 12.5c2.6.2 5 1.2 6.9 2.9l-4 4c-1.7-1.8-2.8-4.2-2.9-6.9zm2.9-7.9 7.4 7.4-2.7 2.7c-2.1-1.9-4.7-3-7.4-3.2h-.1c0-2.6 1.1-5.1 2.8-6.9zM23 11.7c-.1-.1-.2-.2-.4-.2-2.4-.2-4.8-1.2-6.6-2.9l4-4c1.9 1.8 2.9 4.4 3 7.1zm-7.6-3.8c-1.7-1.9-2.7-4.3-2.9-6.8V1c2.7.1 5.1 1.2 7 2.9l-4.1 4zm-.7.7L12 11.3 4.6 3.9c1.8-1.7 4.3-2.8 7-2.9v.1c.1 2.8 1.3 5.4 3.1 7.5zm-6.1 7.5c1.7 1.8 2.7 4.1 2.9 6.6 0 .1.1.2.2.3-2.7-.1-5.2-1.2-7.1-2.9l4-4zm.7-.7 2.7-2.7 7.4 7.4c-1.9 1.8-4.5 2.8-7.2 2.9.1-.1.2-.2.2-.4-.2-2.7-1.3-5.2-3.1-7.2zm3.4-3.4 2.7-2.7c2 1.8 4.5 2.9 7.2 3.2.2 0 .3-.1.4-.2 0 2.8-1.2 5.4-2.9 7.3L12.7 12z" style="fill:#263238"/></svg>

<?xml version="1.0" encoding="utf-8"?>
<!-- Generator: Adobe Illustrator 25.4.1, SVG Export Plug-In . SVG Version: 6.00 Build 0)  -->
<svg version="1.1" id="Capa_1" xmlns="http://www.w3.org/2000/svg" xmlns:xlink="http://www.w3.org/1999/xlink" x="0px" y="0px"
	 viewBox="0 0 24 24" style="enable-background:new 0 0 24 24;" xml:space="preserve">
<style type="text/css">
	.st0{fill:#263238;}
</style>
<g>
	<path class="st0" d="M20.5,20.4c2.2-2.2,3.5-5.2,3.5-8.4c0-3.3-1.3-6.3-3.5-8.4c0,0,0,0,0,0s0,0,0,0C18.3,1.3,15.3,0,12,0
		C8.7,0,5.7,1.3,3.6,3.5c0,0,0,0,0,0s0,0,0,0C1.3,5.7,0,8.7,0,12c0,3.3,1.3,6.3,3.5,8.4c0,0,0,0,0,0c0,0,0,0,0,0
		C5.7,22.7,8.7,24,12,24C15.3,24,18.3,22.7,20.5,20.4C20.4,20.5,20.5,20.5,20.5,20.4C20.5,20.5,20.5,20.4,20.5,20.4z M1,12.5
		C1,12.5,1,12.5,1,12.5c2.6,0.2,5,1.2,6.9,2.9l-4,4C2.2,17.6,1.1,15.2,1,12.5z M3.9,4.6l7.4,7.4l-2.7,2.7c-2.1-1.9-4.7-3-7.4-3.2
		c0,0-0.1,0-0.1,0C1.1,8.9,2.2,6.4,3.9,4.6z M23,11.7c-0.1-0.1-0.2-0.2-0.4-0.2c-2.4-0.2-4.8-1.2-6.6-2.9l4-4
		C21.9,6.4,22.9,9,23,11.7z M15.4,7.9c-1.7-1.9-2.7-4.3-2.9-6.8c0,0,0,0,0-0.1c2.7,0.1,5.1,1.2,7,2.9L15.4,7.9z M14.7,8.6L12,11.3
		L4.6,3.9C6.4,2.2,8.9,1.1,11.6,1c0,0,0,0.1,0,0.1C11.7,3.9,12.9,6.5,14.7,8.6z M8.6,16.1c1.7,1.8,2.7,4.1,2.9,6.6
		c0,0.1,0.1,0.2,0.2,0.3c-2.7-0.1-5.2-1.2-7.1-2.9L8.6,16.1z M9.3,15.4l2.7-2.7l7.4,7.4c-1.9,1.8-4.5,2.8-7.2,2.9
		c0.1-0.1,0.2-0.2,0.2-0.4C12.2,19.9,11.1,17.4,9.3,15.4z M12.7,12l2.7-2.7c2,1.8,4.5,2.9,7.2,3.2h0c0.2,0,0.3-0.1,0.4-0.2
		c0,2.8-1.2,5.4-2.9,7.3L12.7,12z"/>
</g>
</svg>
